X: 1
T: World Turned Upside Down
T: When the King Receives His Own Again
O: England late 1600s
C:
M:C
L:1/8
F:http://www.kitchenmusician.net/giftunes/kingrec.gif
Z: 2006 John Chambers <jc:trillian.mit.edu>
K:G
     D2 \
| "G"D2D2 G2G2 | "D"ABcA "G"B2AB | "C"c2E2 "D"F2G2 | "D"A3G "G"G2  :|
|: A2 \
| "D"A2FG A3B  | "D"AGFG    A2zB | "D"AGFG    A2GF | "A"E3D "D"D2z2 |
| "G"d2dc B2AG | "D"ABcd    B2AB | "C"c2E2 "D"F2G2 | "D"A3G "G"G2  :|
